X: 1
T: BLOW THE MAN DOWN
S: "Community Dances Manual 5", EFDSS, Michael Bell ed., 1957 p.5
R: waltz
Z: 2010 John Chambers <jc:trillian.mit.edu>
M: 3/4
L: 1/4
K: F
A | "F"c>dc | "F"AFA | "F"c>dc | "F"AFA | "Am"c3 | "Dm"d3 | "Gm"B>AB |
"C"G2G | "Gm"B>cB | "C"GEG | "Gm"BAG | "Bb"d2f | "F"c>c | "C7"c2B | "F"A>GA | "F"F2 |]
